src/shared/assets/images/home.svg

<svg width="26" height="26" viewBox="0 0 26 26" fill="none" xmlns="http://www.w3.org/2000/svg">
<path d="M13.781 0.975367L13.7815 0.975802L25.031 12.2254C25.0311 12.2254 25.0312 12.2255 25.0313 12.2256C25.1331 12.3283 25.2137 12.4501 25.2684 12.5841C25.3231 12.7181 25.3509 12.8616 25.35 13.0064V13.0072C25.35 13.299 25.2342 13.5788 25.0279 13.7851C24.8216 13.9913 24.5418 14.1072 24.25 14.1072H23H22.85V14.2572V23.0072C22.85 23.6305 22.6025 24.2282 22.1617 24.6689C21.721 25.1096 21.1233 25.3572 20.5 25.3572H5.50005C4.87679 25.3572 4.27906 25.1096 3.83834 24.6689C3.39763 24.2282 3.15005 23.6305 3.15005 23.0072V14.2572V14.1072H3.00005L1.75005 14.1072L1.74918 14.1072C1.60441 14.1081 1.4609 14.0803 1.32688 14.0256L1.27016 14.1644L1.32688 14.0256C1.19286 13.9708 1.07096 13.8902 0.968179 13.7882L0.862546 13.8947L0.968176 13.7882C0.865075 13.686 0.783241 13.5643 0.727396 13.4303L0.589252 13.4878L0.727395 13.4303C0.67155 13.2962 0.642798 13.1524 0.642798 13.0072C0.642798 12.862 0.67155 12.7182 0.727395 12.5842L0.589252 12.5266L0.727396 12.5842C0.783241 12.4502 0.865075 12.3285 0.968177 12.2262L0.968612 12.2258L12.2186 0.975803L12.219 0.975367C12.3213 0.872265 12.443 0.790432 12.577 0.734586L12.5195 0.596443L12.577 0.734586C12.7111 0.678741 12.8548 0.649989 13 0.649989C13.1453 0.649989 13.289 0.678741 13.4231 0.734586L13.4806 0.596443L13.4231 0.734586C13.5571 0.790432 13.6788 0.872265 13.781 0.975367ZM25.1339 13.8911C25.3684 13.6567 25.5 13.3388 25.5 13.0072L2.85005 14.2572H3.00005V14.4072V23.0072C3.00005 23.6703 3.26344 24.3062 3.73228 24.775C4.20112 25.2438 4.837 25.5072 5.50005 25.5072H20.5C21.1631 25.5072 21.799 25.2438 22.2678 24.775C22.7367 24.3062 23 23.6703 23 23.0072V14.4072V14.2572H23.15H24.25C24.5816 14.2572 24.8995 14.1255 25.1339 13.8911ZM5.35005 23.0072V23.1572H5.50005H20.5H20.65V23.0072V11.0197V10.9576L20.6061 10.9137L13.1061 3.41367L13 3.3076L12.894 3.41367L5.39398 10.9137L5.35005 10.9576V11.0197V23.0072Z" fill="white" stroke="#101010" stroke-width="0.3"/>
</svg>

<svg xmlns="http://www.w3.org/2000/svg" width="26" height="26" fill="none"><path fill="#fff" stroke="#101010" stroke-width=".3" d="m13.781.975 11.25 11.25a1.1 1.1 0 0 1 .319.781v.001a1.1 1.1 0 0 1-1.1 1.1h-1.4v8.9a2.35 2.35 0 0 1-2.35 2.35h-15a2.35 2.35 0 0 1-2.35-2.35v-8.9h-1.4a1.1 1.1 0 0 1-.423-.081l-.057.138.057-.138a1.1 1.1 0 0 1-.359-.238l-.105.107.105-.107a1.1 1.1 0 0 1-.24-.358l-.139.058.138-.058a1.1 1.1 0 0 1 0-.846l-.138-.057.138.057q.085-.202.241-.358L12.219.976h.001c.102-.104.224-.186.358-.241L12.52.596l.057.139a1.1 1.1 0 0 1 .846 0l.058-.139-.058.139a1.1 1.1 0 0 1 .358.24Zm11.353 12.916a1.25 1.25 0 0 0 .366-.884l-22.65 1.25H3v8.75a2.5 2.5 0 0 0 2.5 2.5h15a2.5 2.5 0 0 0 2.5-2.5v-8.75h1.25c.332 0 .65-.131.884-.366ZM5.35 23.007v.15h15.3V10.958l-.044-.044-7.5-7.5L13 3.308l-.106.106-7.5 7.5-.044.044v12.049Z"/></svg>
